X: 296
T:Girl I Left Behind Me,The. JaW.295
T:Brighton Camp,aka. JaW.295
M:2/4
L:1/16
Q:120
C:Brighton Camp,aka
S:James Winder Ms, Lancashire, 1835-41
R:Country Dance
O:England
A:Wyresdale,Lancashire
H:1/16
Z:vmp.Chris Partington, Aug 2004
K:G
Bd|e3d B2G2|"Qu's"B(ABA) E3D|G2G2 (GAB)c|d4 B2Bd|!
e3d B2A2|"Qu's"B(ABA) E2D2|G(FGE) (DEFD)|G4G4:|!
|:B3c e2ef|gfed B4|e2ef gfed|e2f2 g2e2|!
d2g2 d2c2|B(ABA) E2D2|G(FGE) (DEF)D|G4G4:|]
